X:6938
T:The Humours of Whiskey
O:england
C:Trad
R:Shlip Jig
M:9/8
K:Em
L:1/8
Bc/B/A BEE BEE|Bc/B/A BEE FED|Bc/B/A BEE BEE|FAA ABG FED:|
|: G2A BcA BcA|G2A Bcd ecA|G2A BcA Bcd|ecA ABG FED:|


